assets/align-horizontal-left-1.svg

<svg xmlns="http://www.w3.org/2000/svg" fill="none" viewBox="0 0 17 12">
  <path fill="#2A2238" d="M3 3.5h-.5v1H3v-1Zm13 1c.2761 0 .5-.22386.5-.5s-.2239-.5-.5-.5v1Zm-13 0h13v-1H3v1Z"/>
  <path stroke="#2A2238" stroke-linecap="round" d="M1 11V1"/>
  <path fill="#2A2238" d="M3 7.5h-.5v1H3v-1Zm7 1c.2761 0 .5-.22386.5-.5s-.2239-.5-.5-.5v1Zm-7 0h7v-1H3v1Z"/>
</svg>

<svg width="17" height="12" viewBox="0 0 17 12" fill="none" xmlns="http://www.w3.org/2000/svg">
<path d="M3 3.5H2.5V4.5H3V3.5ZM16 4.5C16.2761 4.5 16.5 4.27614 16.5 4C16.5 3.72386 16.2761 3.5 16 3.5V4.5ZM3 4.5H16V3.5H3V4.5Z" fill="#2A2238"/>
<path d="M1 11L1 1" stroke="#2A2238" stroke-linecap="round"/>
<path d="M3 7.5H2.5V8.5H3V7.5ZM10 8.5C10.2761 8.5 10.5 8.27614 10.5 8C10.5 7.72386 10.2761 7.5 10 7.5V8.5ZM3 8.5H10V7.5H3V8.5Z" fill="#2A2238"/>
</svg>
